X:2035
T:Beatrice Hill's Three-Handed Reel
R:Reel
C:Trad.
O:England
Z:Paul Hardy's Session Tunebook 2015 (see www.paulhardy.net). Creative Commons cc by-nc-sa licenced.
M:4/4
L:1/8
Q:1/4=140
K:D
A2|"D"B2AF DFAd|"A"c2BA "G"B2ed|"A7"cdef gece|"D"edcB "A7"A2A2|
"D"B2AF DFAd|"A"c2BA "G"B2ed|"A7"cdef gece|e2dc "D"d2:|
|:a2|"D"b2af dfa2|"A7"a2gf g2ef|"A7"gfed cdef|g2fe "D"f2a2|
"D"b2af dfa2|"A7"a2gf g2ef|"A7"gfed cdef|e2dc "D"d2:|

